X: 3385
T: The LANCERS
%R: reel
B: James Kerr "Merry Melodies" v.3 p.42 #385
Z: 2016 John Chambers <jc:trillian.mit.edu>
M: 2/4
L: 1/16
K: D
fg |\
a^gab a=gfe | d2d2 dcde | f2f2 fagf | edef e2(fg) |\
a^gab a=gfe | d2d2 dcde | f2f2 edef | d2f2d2 :|
|: A2 |\
dcde f2d2 | cdec A2(Bc) | dcde f2d2 | cdec A2A2 |\
AGFG ABcd | AGFG ABcd | A2f2 edef | d2f2d2 :|

%%sep 1 1 500
%%sep 1 1 500

